X:142
%%pagewidth 8in
%%vocalfont Baskerville10Pro 13
T:The Spanish gipsy
M:6/8
L:1/8
K:C
%%score 1 2
V:1 clef-treble
V:2 clef-bass octave=-1
V:1
c|(c>d)e (c>d)e&E6-|c3-c2G&E6|(c>d)e (c>d)e&E6-|c3-c2c&E6|
w:Come fol-*low, fol-*low me,* Ye fai-*ry elves* that be,* Which
V:2
z|C6-|C2CC2B,|A,6-|A,2A,A,2G,|
V:1
(d>e)d d2c&A6|[DB]3[FA]3|[EG]2G [B,G]2F|[CE]3-[CE]2C|
w:cir-*cle on the greeen, Come fol-low Mab, your queen.**
V:2
F,6|G,3B,3|C3G,3|C,2C C3-|
V:1
E2FG2E&C6|A2G !fermata!c2G&C3C2C|(G>A)G (F>G)E&C3-C2C|[B,D]2CC2||
w:Hand in hand let's dance a-round,* For* this place* is fai-ry ground.
V:2
C2D E2C|F2E !invertedfermata!A2E|E3D2C|[G,F]2[CE][CE]2||

